src/icon/banking/card-add/icon_card-add_l_black.svg

<svg width="30px" height="30px" viewBox="0 0 30 30" version="1.1" xmlns="http://www.w3.org/2000/svg"><g transform="translate(-134.000000, -32.000000) translate(134.000000, 32.000000)" stroke="none" stroke-width="1" fill="none" fill-rule="evenodd"><polygon points="0 0 30 0 30 30 0 30"/><path d="M6,19 L11,19 L11,21 L6,21 L6,19 Z M2,11 L27,11 L27,15 L2,15 L2,11 Z" fill="#0B1F35" fill-rule="nonzero" opacity="0.3"/><path d="M28,15 L28,7.85714286 C28,6.27918643 26.7275461,5 25.1578947,5 L3.84210526,5 C2.27245387,5 1,6.27918643 1,7.85714286 L1,22.1428571 C1,23.7208136 2.27245387,25 3.84210526,25 L18.026749,25 L18.026749,24 L3.84210526,24 C2.82592336,24 2,23.1697067 2,22.1428571 L2,7.85714286 C2,6.83029333 2.82592336,6 3.84210526,6 L25.1578947,6 C26.1740766,6 27,6.83029333 27,7.85714286 L27,15 L28,15 Z" fill="#0B1F35" fill-rule="nonzero"/><rect fill="#0B1F35" x="25" y="18" width="1" height="9"/><rect fill="#0B1F35" transform="translate(25.500000, 22.500000) rotate(90.000000) translate(-25.500000, -22.500000) " x="25" y="18" width="1" height="9"/></g></svg>

<svg width="30" height="30" viewBox="0 0 30 30" xmlns="http://www.w3.org/2000/svg"><g fill="none" fill-rule="evenodd"><path d="M0 0h30v30H0z"/><path d="M6 19h5v2H6v-2zm-4-8h25v4H2v-4z" fill="#0B1F35" fill-rule="nonzero" opacity=".3"/><path d="M28 15V7.857A2.85 2.85 0 0 0 25.158 5H3.842A2.85 2.85 0 0 0 1 7.857v14.286A2.85 2.85 0 0 0 3.842 25h14.185v-1H3.842A1.85 1.85 0 0 1 2 22.143V7.857A1.85 1.85 0 0 1 3.842 6h21.316A1.85 1.85 0 0 1 27 7.857V15h1z" fill="#0B1F35" fill-rule="nonzero"/><path fill="#0B1F35" d="M25 18h1v9h-1z"/><path fill="#0B1F35" d="M30 22v1h-9v-1z"/></g></svg>
